z_dist/img/icons/crypto/gala-GALA.svg

<svg width="64" height="64" viewBox="0 0 64 64" fill="none" xmlns="http://www.w3.org/2000/svg">
<rect y="0.000244141" width="64" height="64" rx="4" fill="#EDF0F4"/>
<path d="M35.8053 25.0328C34.5023 25.8409 31.8924 27.4611 31.8764 27.4771L19.8899 20.4192L31.8815 13.7761L46.6922 21.9987L49.6163 20.3342L31.9014 10.667L14.1016 20.3241L31.8065 30.5512L38.6795 26.7373L35.8053 25.0328Z" fill="black"/>
<path d="M24.1971 31.5064V28.4301L30.9847 32.2015V53.3202L12.7996 42.0569V21.687L15.6663 23.4908V40.5537L28.1196 48.244V33.8122L24.1971 31.5064Z" fill="black"/>
<path d="M32.734 53.3334V49.9622L47.9558 40.5866V26.7045L35.613 33.9037V38.4837L32.7319 40.3311V32.2224L50.9569 21.585V42.0767L32.734 53.3334Z" fill="black"/>
</svg>

<svg width="64" height="64" fill="none" xmlns="http://www.w3.org/2000/svg"><rect width="64" height="64" rx="4" fill="#EDF0F4"/><path d="M35.805 25.033a920.263 920.263 0 00-3.929 2.444L19.89 20.42l11.991-6.643L46.692 22l2.924-1.665-17.715-9.667-17.8 9.657 17.706 10.227 6.872-3.814-2.874-1.704zm-11.608 6.473V28.43l6.788 3.772V53.32L12.8 42.057v-20.37l2.866 1.804v17.063l12.454 7.69V33.812l-3.923-2.306zm8.537 21.827v-3.37l15.222-9.376V26.704l-12.343 7.2v4.58l-2.881 1.847v-8.109l18.225-10.637v20.492L32.734 53.333z" fill="#000"/></svg>
